icons/media/go-backward-10-24.svg

<svg width="24" height="24" viewBox="0 0 24 24" fill="none" xmlns="http://www.w3.org/2000/svg">
<path d="M13.589 0.580996C13.3369 0.453244 13.0344 0.478064 12.8065 0.6452L9.05648 3.3952C8.86382 3.53648 8.75 3.7611 8.75 4C8.75 4.23891 8.86382 4.46353 9.05648 4.60481L12.8065 7.35481C13.0344 7.52194 13.3369 7.54676 13.589 7.41901C13.8411 7.29126 14 7.03263 14 6.75V4.73663C17.7294 5.63603 20.5 8.99446 20.5 13C20.5 17.6944 16.6944 21.5 12 21.5C7.30558 21.5 3.5 17.6944 3.5 13C3.5 10.6526 4.45057 8.52861 5.98959 6.98959C6.28249 6.6967 6.28249 6.22183 5.98959 5.92893C5.6967 5.63604 5.22182 5.63604 4.92893 5.92893C3.12011 7.73776 2 10.2388 2 13C2 18.5228 6.47715 23 12 23C17.5228 23 22 18.5228 22 13C22 8.16208 18.5645 4.12658 14 3.20004V1.25C14 0.967376 13.8411 0.708748 13.589 0.580996Z" fill="black"/>
<path fill-rule="evenodd" clip-rule="evenodd" d="M9.38036 9.1036C9.60939 9.23836 9.75001 9.48426 9.75001 9.75V17.25C9.75001 17.6642 9.41423 18 9.00001 18C8.5858 18 8.25001 17.6642 8.25001 17.25V11.0246L7.11425 11.6556C6.75216 11.8568 6.29556 11.7263 6.0944 11.3642C5.89324 11.0021 6.02369 10.5455 6.38578 10.3444L8.63578 9.09438C8.86808 8.96533 9.15133 8.96883 9.38036 9.1036Z" fill="black"/>
<path fill-rule="evenodd" clip-rule="evenodd" d="M15.4358 15.8499C15.7649 15.3562 16 14.5505 16 13.5C16 12.4495 15.7649 11.6438 15.4358 11.1501C15.1455 10.7146 14.7825 10.5 14.25 10.5C13.7176 10.5 13.3546 10.7146 13.0643 11.1501C12.7351 11.6438 12.5 12.4495 12.5 13.5C12.5 14.5505 12.7351 15.3562 13.0643 15.8499C13.3546 16.2854 13.7176 16.5 14.25 16.5C14.7825 16.5 15.1455 16.2854 15.4358 15.8499ZM14.25 18C16.4069 18 17.5 15.9853 17.5 13.5C17.5 11.0147 16.4069 9 14.25 9C12.0932 9 11 11.0147 11 13.5C11 15.9853 12.0932 18 14.25 18Z" fill="black"/>
</svg>

<svg xmlns="http://www.w3.org/2000/svg" width="24" height="24"><path d="M13.589.581a.75.75 0 00-.783.064l-3.75 2.75a.75.75 0 000 1.21l3.75 2.75A.75.75 0 0014 6.75V4.737A8.5 8.5 0 115.99 6.99a.75.75 0 10-1.061-1.061A9.971 9.971 0 002 13c0 5.523 4.477 10 10 10s10-4.477 10-10c0-4.838-3.436-8.873-8-9.8V1.25a.75.75 0 00-.411-.669z"/><path fill-rule="evenodd" d="M9.38 9.104a.75.75 0 01.37.646v7.5a.75.75 0 01-1.5 0v-6.225l-1.136.63a.75.75 0 11-.728-1.31l2.25-1.25a.75.75 0 01.744.009zm6.056 6.746c.329-.494.564-1.3.564-2.35s-.235-1.856-.564-2.35c-.29-.435-.653-.65-1.186-.65-.532 0-.895.215-1.186.65-.329.494-.564 1.3-.564 2.35s.235 1.856.564 2.35c.29.435.654.65 1.186.65.533 0 .896-.215 1.186-.65zM14.25 18c2.157 0 3.25-2.015 3.25-4.5S16.407 9 14.25 9 11 11.015 11 13.5s1.093 4.5 3.25 4.5z"/></svg>
